img/icon_question.svg

<svg xmlns="http://www.w3.org/2000/svg" viewBox="0 0 119.049 80.102" enable-background="new 0 0 119.049 80.102"><g fill-rule="evenodd" clip-rule="evenodd"><path fill="#fff" d="M7.701 63.395l-3.146 16.371 15.714-5.207c5.782 3.268 12.461 5.135 19.578 5.135 22.008 0 39.846-17.838 39.846-39.846 0-22.01-17.838-39.848-39.846-39.848-22.009 0-39.847 17.838-39.847 39.848 0 8.81 2.861 16.951 7.701 23.547z"/><path fill="#29ADD6" d="M38.543 54.287c3.083 0 5.582 2.5 5.582 5.582s-2.5 5.582-5.582 5.582c-3.083 0-5.581-2.5-5.581-5.582s2.498-5.582 5.581-5.582zm-14.22-24.041c-1.649-1.063-1.806-3.303-.943-6.348 2.758-6.488 8.71-10.443 19.491-9.522 10.782.921 16.776 11.13 12.647 18.697-2.025 3.519-3.926 4.682-8.084 7.787-2.88 1.709-3.632 3.232-5.058 6.695-1.889 4.209-10.263 1.561-7.985-4.811 1.458-4.299 5.219-5.886 9.72-10.217 3.85-3.443 1.837-9.584-2.827-10.316-4.375-.634-7.214.965-8.679 4.563-1.464 3.925-3.907 5.764-8.282 3.472zM89.49 20.985c16.326 0 29.559 13.233 29.559 29.558 0 6.766-2.273 12.998-6.096 17.98l1.99 11.514-11.152-3.619c-4.238 2.348-9.113 3.684-14.301 3.684-16.326 0-29.558-13.23-29.558-29.559 0-16.325 13.232-29.558 29.558-29.558z"/><path fill="#fff" d="M101.699 46.51c2.229 0 4.033 1.807 4.033 4.033 0 2.229-1.805 4.035-4.033 4.035-2.227 0-4.033-1.807-4.033-4.035 0-2.227 1.807-4.033 4.033-4.033zm-24.597 0c2.227 0 4.033 1.807 4.033 4.033 0 2.229-1.807 4.035-4.033 4.035-2.229 0-4.035-1.807-4.035-4.035-.001-2.227 1.806-4.033 4.035-4.033zm12.298 0c2.227 0 4.033 1.807 4.033 4.033 0 2.229-1.807 4.035-4.033 4.035-2.229 0-4.033-1.807-4.033-4.035 0-2.227 1.805-4.033 4.033-4.033z"/></g></svg>

<?xml version="1.0" encoding="utf-8"?>
<!-- 
	width="119.049px" height="80.102px"   
	
	Зелено (Default): #009933
	Светло синьо: #29ADD6
-->
<!DOCTYPE svg PUBLIC "-//W3C//DTD SVG 1.1//EN" "http://www.w3.org/Graphics/SVG/1.1/DTD/svg11.dtd">
<svg version="1.1" id="Layer_1" xmlns="http://www.w3.org/2000/svg" xmlns:xlink="http://www.w3.org/1999/xlink" x="0px" y="0px"
	 viewBox="0 0 119.049 80.102" enable-background="new 0 0 119.049 80.102"
	 xml:space="preserve">
<g>
	<path fill-rule="evenodd" clip-rule="evenodd" fill="#FFFFFF" d="M7.701,63.395L4.555,79.766l15.714-5.207
		c5.782,3.268,12.461,5.135,19.578,5.135c22.008,0,39.846-17.838,39.846-39.846C79.693,17.838,61.855,0,39.847,0
		C17.838,0,0,17.838,0,39.848C0,48.658,2.861,56.799,7.701,63.395L7.701,63.395z"/>
	<path fill-rule="evenodd" clip-rule="evenodd" fill="#29ADD6" d="M38.543,54.287c3.083,0,5.582,2.5,5.582,5.582
		s-2.5,5.582-5.582,5.582c-3.083,0-5.581-2.5-5.581-5.582S35.46,54.287,38.543,54.287L38.543,54.287z M24.323,30.246
		c-1.649-1.063-1.806-3.303-0.943-6.348c2.758-6.488,8.71-10.443,19.491-9.522c10.782,0.921,16.776,11.13,12.647,18.697
		c-2.025,3.519-3.926,4.682-8.084,7.787c-2.88,1.709-3.632,3.232-5.058,6.695c-1.889,4.209-10.263,1.561-7.985-4.811
		c1.458-4.299,5.219-5.886,9.72-10.217c3.85-3.443,1.837-9.584-2.827-10.316c-4.375-0.634-7.214,0.965-8.679,4.563
		C31.141,30.699,28.698,32.538,24.323,30.246L24.323,30.246z"/>
	<path fill-rule="evenodd" clip-rule="evenodd" fill="#29ADD6" d="M89.49,20.985c16.326,0,29.559,13.233,29.559,29.558
		c0,6.766-2.273,12.998-6.096,17.98l1.99,11.514l-11.152-3.619c-4.238,2.348-9.113,3.684-14.301,3.684
		c-16.326,0-29.558-13.23-29.558-29.559C59.932,34.218,73.164,20.985,89.49,20.985L89.49,20.985z"/>
	<path fill-rule="evenodd" clip-rule="evenodd" fill="#FFFFFF" d="M101.699,46.51c2.229,0,4.033,1.807,4.033,4.033
		c0,2.229-1.805,4.035-4.033,4.035c-2.227,0-4.033-1.807-4.033-4.035C97.666,48.316,99.473,46.51,101.699,46.51L101.699,46.51z
		 M77.102,46.51c2.227,0,4.033,1.807,4.033,4.033c0,2.229-1.807,4.035-4.033,4.035c-2.229,0-4.035-1.807-4.035-4.035
		C73.066,48.316,74.873,46.51,77.102,46.51L77.102,46.51z M89.4,46.51c2.227,0,4.033,1.807,4.033,4.033
		c0,2.229-1.807,4.035-4.033,4.035c-2.229,0-4.033-1.807-4.033-4.035C85.367,48.316,87.172,46.51,89.4,46.51L89.4,46.51z"/>
</g>
</svg>
